X:1
T:Arie Antiche,  Aria del opera  I zingari in fiera
T:Chi vuol la zingarella
T:Chi vuol la zingarella.
T:Giovanni Paisiello (1741-1816) Alessandro Parisotti (1853-1913)
T:High voices Del opera I Zingari in fiera Giuseppe Palomba (a 1765- d 1825) 
T:Canzone. (Arie Antiche.)
T:Creative Commons copyright waiver (CC0 1.0 Universal) 
T:Creative Commons copyright waiver (CC0 1.0 Universal) 
T:Creative Commons copyright waiver (CC0 1.0 Universal) 
T:Creative Commons copyright waiver (CC0 1.0 Universal) 
T:Creative Commons copyright waiver (CC0 1.0 Universal) 
C:Giovanni Paisiello (1741-1816)
Z:GiuseppePalomba (<1765->1825)
Z:Creative Commons copyright waiver (CC0 1.0 Universal)
Z:
%%score ( 1 2 ) { ( 3 5 ) | ( 4 6 ) }
L:1/8
Q:1/4=76
M:2/4
K:F
V:1 treble nm="Voice."
V:2 treble 
V:3 treble nm="Piano."
V:5 treble 
V:4 bass 
V:6 bass 
V:1
"^Moderato. (.)" z | z4 | z4 | z4 | z4 | z4 | z4 |[Q:1/4=66] x4[Q:1/4=60] | %8
w: ||||||||
 z2 !fermata!z[Q:1/4=77] C | A G F E | F C2 A | B A G ^F | G D2 (B/>G/) | E (G/>E/) C (c/>B/) | %14
w: Chi|vuol la zin- ga-|rel- la gra-|zio- sa,ac- co- tae|bel- la? Si- *|gno- ri,ec- * co- la _|
 A2 z F | (B/A/) (G/F/) F3/2 F/ | G2 z2 |[Q:1/4=78] z3/2 G/ G/ G/ G/ G/ | (Gc) G2 | %19
w: qua, si-|gno- * ri,ec- * co- la|qua.|Le do- ne sul bal-|co- * ne|
 z3/2 F/ F/ F/ F/ F/ | E2 z2 | z3/2 G/ G/ G/ G/ G/ | (Gc) G2 | z3/2 F/ F/ F/ F/ F/ | %24
w: so be- nein- do- vi-|nar.|I gio- va- nial can-|to- * ne|so me- glio stuz- zi-|
 E2 z (G/4F/4E/4D/4) | C C C C | D2 C (G/4F/4E/4D/4) | C C C C | D2 C (G/4F/4E/4D/4) | %29
w: car. A _ _ _|vec- chiin- na- mo-|ra- ti scal- * * *|dar fo le cer-|vel- la, scal- * * *|
 C (G/4F/4E/4D/4) C C | (!>!D2 C)[Q:1/4=66] (G/4F/4E/4D/4) | C C C C | %32
w: dar fo _ _ _ le cer-|vel- la, a _ _ _|vec- chiin- na- mo-|
 !fermata!TD2({!fermata!^C!fermata!D!fermata!F!fermata!E)} !fermata!=C !fermata!z/ C/ | %33
w: ra- ti. Chi|
[Q:1/4=77] A G F E | F C2 A | B A G ^F | G D2 (B/>G/) | !>!E (G/>E/) !>!C (c/>B/) | (BA) z A | %39
w: vuol la zin- ga-|rel- la, chi|vuol la zin- ga-|rel- la? Si- *|gno- ri,ec- * co- la _|qua, * si-|
 (A/G/) (B/G/) (G/F/) (F/E/) | F2 z2 | z3/2!p! c/ c/ c/ c/ c/ | (cf) c2 | z3/2!pp! B/ B/ B/ B/ B/ | %44
w: gno- * ri,ec- * co- * la _|qua.|Le do- ne sul bal-|co- * ne|so be- nein- do- vi-|
 A2 z2 | z3/2 c/ c/ c/ c/ c/ | (cf) c2 | z3/2 B/ B/ B/ B/ B/ | A2 z[Q:1/4=78] c | D D D D | %50
w: nar.|I gio- va- nial can-|to- * ne|so me- glio stuz- zi-|car. A|vec- chiin- na- mo-|
 (B>A) G B | C C C C | (A>G) F (!>!A/>G/) | %53
w: ra- * ti, a|vec- chiin- na- mo-|ra- * ti scal- *|
[Q:1/4=62] F[Q:1/4=60]"^rit.      -          -         -" (F/[Q:1/4=58]G/) A[Q:1/4=40] =B | %54
w: dar fo _ le cer-|
[Q:1/4=30] d c !fermata!z[Q:1/4=77] C |[Q:1/4=76]"^a tempo" A G F E | F C2 A | B A G ^F | %58
w: ve- la. Chi|vuol la zin- ga-|rel- la gra-|zio- sa,ac- co- tae|
 G D2 (B/>G/) | !>!E (G/>E/) !>!C (c/>B/) | (BA) z A | (A/G/) (B/G/) (G/F/) (F/E/) | %62
w: bel- la? Si- *|gno- ri,ec- * co- la _|qua; _ si-|gno- * ri,ec- * co- * la _|
 F A/!<(! G/ G/ F/ B/ A/ | A/ G/ c/ B/ B/ A/ d/[Q:1/4=50] c/!<)! | %64
w: qua, gra- zi- o sa,ac- co- tae|bel- la, * * * sa,ac- co- tae|
!f![Q:1/4=30] (cf) F !fermata!z/!p![Q:1/4=70] F/ | G (A/B/) D E | %66
w: bel- * la. Si-|gno- ri,ec- * co- la|
 F[Q:1/4=77] A/ G/!<(! G/ F/ B/ A/ | A/ G/ c/ B/ B/ A/ d/[Q:1/4=50] c/!<)! | %68
w: qua, gra- zi- o sa,ac- co- tae|bel- la, * * * sa,ac- co- tae|
!f![Q:1/4=25] ((cf)) F !fermata!z/!p![Q:1/4=68] F/ | G (A/B/) D E | %70
w: bel- * la, Si-|gno- ri,ec- * co- la|
[Q:1/4=76]"^cresc." F z/ A/ F/ F/[Q:1/4=78] z/ c/ | A/ A/ z/[Q:1/4=80] F/ d/ d/ E/ E/ | %72
w: qua, si- gno- ri,- si-|gno- ri, si- gno ri,ec- co- la|
 F z/ A/ F/ F/ z/ c/ | %73
w: qua, si- gno- ri, si-|
 A/[Q:1/4=72] A/ z/[Q:1/4=70]"^rit.      -             -         -"!ff! F/ !>!d/ !>!d/ !>!E/ !>!E/ | %74
w: gno- ri,- si- gno- ri,ec- co- la|
 F z z2 | z4 | z4 |] %77
w: qua,|||
V:2
 x | x4 | x4 | x4 | x4 | x4 | x4 | x4 | x4 | x4 | x4 | x4 | x4 | x4 | x4 | x4 | x4 | x4 | x4 | x4 | %20
w: ||||||||||||||||||||
 x4 | x4 | x4 | x4 | x4 | x4 | x4 | x4 | x4 | x4 | x4 | x4 | x4 | x4 | x4 | x4 | x4 | x4 | x4 | %39
w: |||||||||||||||||||
 x4 | x4 | x4 | x4 | x4 | x4 | x4 | x4 | x4 | x4 | x4 | x4 | x4 | x4 | x4 | x4 | x4 | x4 | x4 | %58
w: |||||||||||||||||||
 x4 | x4 | x4 | x4 | x (A/G/) G/ x3/2 | x (c/B/) B/ x3/2 | x4 | x4 | x (A/G/) G/ x3/2 | %67
w: |||||gra- zi- o||||
 x (c/B/) B/ x3/2 | x4 | x4 | x4 | x4 | x4 | x4 | x4 | x4 | x4 |] %77
w: gra- zi- o||||||||||
V:3
 C | .[CA].[B,G].[A,F].[G,E] | F C2 A | .[DB].[CA].[B,G].[A,^F] | G D2 (B/>G/) | %5
 !>![G,E] (G/>E/) !>!C (c/>B/) | A2 z F | (B/A/G/F/) .f.=B | c2 !fermata!z z | %9
 .[CA].[_B,G].[A,F].[G,E] | F C2 A | [DB][CA][B,G][A,^F] | G D2 B | [EG] z [EG] z | %14
 z .[FA].[Ac].[FA] | z [Af][F=B][FB] | [Ec] [CE]/G,/ [CE]/G,/[CE]/G,/ | %17
 ([=B,F]/G,/)([B,F]/G,/) ([DF]/G,/)([DF]/G,/) | ([CE]/G,/)([CE]/G,/) ([CE]/G,/)([CE]/G,/) | %19
 ([DF]/G,/)(([DF]/G,/)) ([DF]/G,/)([DF]/G,/) | ([CE]/G,/)([CE]/G,/) ([CE]/G,/)([CE]/G,/) | %21
 ([=B,F]/G,/)([B,F]/G,/) ([DF]/G,/)([DF]/G,/) | ([CE]/G,/)([CE]/G,/) (([CE]/G,/))([CE]/G,/) | %23
 ([DF]/G,/)([DF]/G,/) (([DF]/G,/))([DF]/G,/) | [CE]2 z!p! (G/4F/4E/4D/4) | .C.C.C.C | %26
 (([F,=B,D]2 [E,G,C]))!p! (G/4F/4E/4D/4) | .C.C.C.C | (([F,=B,D]2 [E,C]))!p! (G/4F/4E/4D/4) | %29
 C(G/4F/4E/4D/4) CC | (([F,=B,D]2 [E,C]))!p! (G/4F/4E/4D/4) | .C.C.C.C | %32
!f! ((!fermata![F,=B,D]2 [E,C])) !fermata!z | .[CA].[_B,G].[A,F].[G,E] | F C2 A | %35
 .[DB].[CA].[B,G].[A,^F] | G D2 B | [EG] z [EG] z | z .[FA].[Ac].[CA] | %39
 ([CA]/[B,G]/)([DB]/[B,G]/) ([B,G]/[A,F]/)([A,F]/[G,E]/) | %40
 ([A,F]/C/)([FA]/C/) ([FA]/C/)(([FA]/C/)) |!p! ([EB]/C/)([EB]/C/) ([GB]/C/)([GB]/C/) | %42
 ([FA]/C/)([FA]/C/) ([FA]/C/)([FA]/C/) | ([GB]/C/)([GB]/C/) ([GB]/C/)([GB]/C/) | %44
 ([FA]/C/)([FA]/C/) ([FA]/C/)([FA]/C/) | ([EB]/C/)([EB]/C/) ([GB]/C/)([GB]/C/) | %46
 ([FA]/C/)([FA]/C/) ([FA]/C/)([FA]/C/) | ([GB]/C/)([GB]/C/) ([GB]/C/)([GB]/C/) | %48
 ([FA]/C/)([FA]/C/) ([FA]/C/)([FA]/C/) | ([^FA]/[DF]/)([FA]/[DF]/) ([FA]/[DF]/)([FA]/[DF]/) | %50
 ([GB]/[DG]/)([GB]/[DG]/) ([GB]/[DG]/)([GB]/[DG]/) | %51
 ([EG]/[CE]/)([EG]/[CE]/) ([EG]/[CE]/)([EG]/[CE]/) | %52
 ([FA]/[CF]/)([FA]/[CF]/) ([FA]/[CF]/)([FA]/[CF]/) | [FA][Af] z [F=B] | [Ec]2 !fermata!z z | %55
 .[CA].[_B,G].[A,F].[G,E] | F C2 A | .[DB].[CA].[B,G].[A,^F] | G D2 B | [EG] z [EG] z | %60
 z .[FA].[Ac].[CA] | ([CA]/[B,G]/)([DB]/[B,G]/) ([B,G]/[A,F]/)([A,F]/[G,E]/) | %62
 [A,F]([CA]/!<(![B,G]/) ([B,G]/[A,F]/)([DB]/[CA]/) | %63
 ([CA]/[B,G]/)([Ac]/[GB]/) ([GB]/[FA]/)([Bd]/[Ac]/)!<)! |!f! [Ac] z z !fermata!z | %65
 z!p! .[DG].[DB][B,E] | [A,F]([CA]/[B,G]/)!<(! ([B,G]/[A,F]/)([DB]/[CA]/) | %67
 ([CA]/[B,G]/)([Ac]/[GB]/) ([GB]/[FA]/)([Bd]/[Ac]/)!<)! |!f! [Ac] z z !fermata!z | %69
 z!p! .[DG].[DB].[B,E] | [A,F]/"_cresc."G/A- A/B/c- | c/d/e/f/ [Bd]/[Bd]/[B,E]/[B,E]/ | %72
 [A,F]/G/A- A/B/(c | c/)d/e/f/ [Bd]/[Bd]/[B,E]/[B,E]/ | [A,CF]!f! (F/A/ c/A/f/c/) | %75
 !>![Acfa] (C/F/ A/F/c/A/) | !>![FAcf] F,/>F,/F, z |] %77
V:4
 z | z2 z .C, | .F,.E,.F,.^F, | G,2 z D, | G,^F,G,G,, | C, z [C,E,] z | %6
 F, .[F,,A,,].[A,,C,].[F,,A,,] | ([D,F,]4 | [C,E,]2) !fermata!z z | z2 z .C, | .F,.E,.F,.^F, | %11
 G,2 z D, | G,^F,G,G,, | C, z C, z | F,, z F, z | (D,4 | C,2) z C, | D,2 z =B,, | C, z z .C, | %19
 .=B,,.D,.G,,.B,, | C,2 z C, | D,2 z =B,, | C,2 z .C, | .=B,,.D,.G,,.B,, | C,2 z2 | z4 | %26
 (!>!G,,2 C,) z | z4 | (!>!G,,2 C,) z | z4 | (!>!G,,2 C,) z | z4 | %32
 (!>!!fermata!G,,2 C,) !fermata!z | z2 z .C, | .F,.E,.F,.^F, | G,2 z .D, | .G,.^F,.G,.G,, | %37
 C, z C, z | F, z F,, z | B,, z C, z | F,2 z F, | G,2 z E, | F,2 z .F, | .E,.G,.C,.E, | F, z z F, | %45
 G,2 z E, | F,2 z .F, | .E,.G,.C,.E, | F,2 z2 | z!f! [D,,D,]!p! D,D, | z!f! [G,,,G,,]!p! G,,G,, | %51
 z!f! [C,,C,]!p! C,C, | F, z F, z | F,"^col   canto" z F, z | C,2 !fermata!z z | %55
"^a tempo" z2 z C, | .F,.E,.F,.^F, | .G,2 z D, | .G,.^F,.G,.G,, | C, z C, z | F, z F,,2 | %61
 B,, z C,C,, | F,,F,,F,,F,, | F,,F,,F,,F,, | F,, z z !fermata!z | z .B,,.G,,.C, | F,,F,,F,,F,, | %67
 F,,F,,F,,F,, | F,, z z !fermata!z | z .B,,.G,,.C, | F,,/F,/[A,,C,]/F,/ F,,/F,/[A,,C,]/F,/ | %71
 A,,/B,,/C,/A,,/ [B,,,B,,][C,,C,] | F,,/F,/[A,,C,]/F,/ F,,/F,/[A,,C,]/F,/ | %73
 A,,/B,,/"^rit.      -         -           -"C,/B,,/ [B,,,B,,][C,,C,] | !//-![F,,A,,C,]2 F,2 | %75
 !//-![F,,A,,C,]2 F,2 | !>![F,,A,,C,] [F,,,F,,][F,,,F,,] z |] %77
V:5
 x | x4 | A,G,A,D | x4 | B, A,B,D/>B,/ | x4 | x4 | x4 | x4 | x4 | A,G,A,D | x4 | B,A,B,D | x4 | %14
 x4 | x4 | x4 | x4 | x4 | x4 | x4 | x4 | x4 | x4 | x4 | x4 | x4 | x4 | x4 | x4 | x4 | x4 | x4 | %33
 x4 | A,G,A,D | x4 | B,A,B,D | x4 | x4 | x4 | x4 | x4 | x4 | x4 | x4 | x4 | x4 | x4 | x4 | x4 | %50
 x4 | x4 | x4 | x4 | x4 | x4 | A,G,A,D | x4 | B,A,B,D | x4 | x4 | x4 | x4 | x4 | x4 | x4 | x4 | %67
 x4 | x4 | x4 | x4 | x4 | x4 | x4 | x4 | x4 | x4 |] %77
V:6
 x | x4 | x4 | x4 | x4 | x4 | x4 | x4 | x4 | x4 | x4 | x4 | x4 | x4 | x4 | x4 | x4 | x4 | x4 | x4 | %20
 x4 | x4 | x4 | x4 | x4 | x4 | x4 | x4 | x4 | x4 | x4 | x4 | x4 | x4 | x4 | x4 | x4 | x4 | x4 | %39
 x4 | x4 | x4 | x4 | x4 | x4 | x4 | x4 | x4 | x4 | x4 | x4 | x4 | x4 | x4 | x4 | x4 | x4 | x4 | %58
 x4 | x4 | x4 | x4 | x4 | x4 | x4 | x4 | x4 | x4 | x4 | x4 | x4 | F,, z x2 | x4 | F,, z x2 | x4 | %75
 x4 | x4 |] %77

